Newaita-dark/actions/16/media-eject.svg

<?xml version="1.0" encoding="UTF-8"?>
<svg xmlns="http://www.w3.org/2000/svg" xmlns:xlink="http://www.w3.org/1999/xlink" width="16pt" height="16pt" viewBox="0 0 16 16" version="1.1">
<g id="surface1">
<path style=" stroke:none;fill-rule:nonzero;fill:rgb(74.117649%,74.117649%,74.117649%);fill-opacity:1;" d="M 7.9375 0.785156 C 3.90625 0.785156 0.660156 4.03125 0.660156 8.0625 C 0.660156 12.09375 3.90625 15.339844 7.9375 15.339844 C 11.96875 15.339844 15.214844 12.09375 15.214844 8.0625 C 15.214844 4.03125 11.96875 0.785156 7.9375 0.785156 Z M 7.9375 1.777344 C 11.417969 1.777344 14.222656 4.582031 14.222656 8.0625 C 14.222656 11.542969 11.417969 14.347656 7.9375 14.347656 C 4.457031 14.347656 1.652344 11.542969 1.652344 8.0625 C 1.652344 4.582031 4.457031 1.777344 7.9375 1.777344 Z M 7.9375 1.777344 "/>
<path style="fill:none;stroke-width:31.75;stroke-linecap:round;stroke-linejoin:round;stroke:rgb(25.882354%,64.705884%,96.078432%);stroke-opacity:1;stroke-miterlimit:4;" d="M 338.717654 64.223336 L 169.358827 64.223336 L 253.975747 -62.889526 Z M 338.717654 64.223336 " transform="matrix(0.031253,0,0,0.031253,0,6.719392)"/>
<path style=" stroke:none;fill-rule:nonzero;fill:rgb(25.882354%,64.705884%,96.078432%);fill-opacity:1;" d="M 5.457031 10.046875 L 10.417969 10.046875 C 10.691406 10.046875 10.914062 10.269531 10.914062 10.542969 C 10.914062 10.816406 10.691406 11.039062 10.417969 11.039062 L 5.457031 11.039062 C 5.183594 11.039062 4.960938 10.816406 4.960938 10.542969 C 4.960938 10.269531 5.183594 10.046875 5.457031 10.046875 Z M 5.457031 10.046875 "/>
</g>
</svg>

<svg xmlns="http://www.w3.org/2000/svg" width="16pt" height="16pt" viewBox="0 0 16 16"><path d="M7.938.785A7.262 7.262 0 0 0 .66 8.062a7.262 7.262 0 0 0 7.277 7.278 7.262 7.262 0 0 0 7.278-7.277A7.262 7.262 0 0 0 7.938.785zm0 .992a6.273 6.273 0 0 1 6.285 6.285 6.273 6.273 0 0 1-6.286 6.286 6.273 6.273 0 0 1-6.285-6.286 6.273 6.273 0 0 1 6.285-6.285zm0 0" fill="#bdbdbd"/><path d="M10.586 8.727H5.293l2.645-3.973zm0 0" fill="none" stroke-width=".9921875" stroke-linecap="round" stroke-linejoin="round" stroke="#42a5f5"/><path d="M5.457 10.047h4.961a.497.497 0 0 1 0 .992H5.457a.497.497 0 0 1 0-.992zm0 0" fill="#42a5f5"/></svg>
